X:1
T:Title
%%score { 1 | 2 }
L:1/8
Q:1/4=100
M:4/4
K:F
V:1 treble nm="Grand Piano"
V:2 bass 
V:1
 [DB]4 [B,D]2 [_EG]2 | [DF]4 [DB]4 | [EB]2 [EG]2 [EA]2 [EB]2 | [Fd]4 [Fc]4 | [Ec]4 [Ec]2 [EG]2 | %5
w: F.~L.~Benjamin * *|||||
 [FA]4 [Fc]4 | [FB]2 [B,DG]2 [A,CF]2 [G,CE]2 | [F,A,CF]8 | [CFA]4 [DFB]2 [_EFc]2 | [DFB]4 [Fd]4 | %10
w: |||||
 [Ed]2 [Ec]2 [EG]2 [_EFA]2 | [_EFc]4 [DFB]4 | B4 B2 E2 | F4 B4 | B2 A2 G2 A2 | [DB]8 |] %16
w: ||||||
V:2
 [B,,F,]4 [B,,F,]2 [B,,F,]2 | [B,,B,]4 [B,,B,]4 | [C,G,]2 [C,C]2 [C,C]2 [C,C]2 | [F,B,]4 [F,A,]4 | %4
 [C,G,]4 [C,G,]2 [C,C]2 | [F,C]4 [F,A,]4 | [B,,G,]2 B,,2 C,2 C,2 | F,,8 | F,4 F,2 F,2 | %9
 B,,4 [B,,B,]4 | [C,G,]2 [C,C]2 [C,C]2 F,2 | B,,4 B,,4 | [^F,^CE]4 [F,CE]2 [F,C]2 | %13
 [F,D]4 [F,DF]4 | [F,C_E]2 [F,CE]2 [F,CE]2 [F,CE]2 | [B,,B,]8 |] %16

